X:1
T:Kesh Jig (Kincora Jig)
L:1/8
M:6/8
K:G
V:2 clef=alto middle=C
D, | "G"G,2G, G,A,B, | "D"A,2A, A,B,D | "G"EDD GDD | "Em"EDB, "D"DB,A, |
"G"G,2G, G,A,B, | "D"A,2A, A,B,D | "G"EDD GDB, | "D"A,G,F, "G"G,2 :|]
[ |: A, | "G"B,2B, DB,D | "C"EGE "G"DB,G, | B,2B, DB,G, | "D"A,G,A, A,F,D, |
"G"B,2B, DB,D | "C"EGE "G"D3 | GFG "D"AGA | "G"BGG G2 :|]
